X:1
T:Lugn Vilar Sjön, 98.988
T:Lugn Vilar Sjön, 98.988
T:Heinrich Pfeil (1835-1899)
T:Public Domain Courtesy of the Cyber Hymnal™
C:Heinrich Pfeil (1835-1899)
Z:Public Domain
Z:Courtesy of the Cyber Hymnal™
%%score ( 1 2 ) ( 3 4 )
L:1/8
Q:1/4=95
M:3/4
K:Ab
V:1 treble 
V:2 treble 
V:3 bass 
V:4 bass 
V:1
 EC D | E3 E [EA][EB] | [EA]2 [EG]2 z [EG] | [GB]>[^F=A] [GB][EG] [D=F]>[DE] | %4
 [CE]3 [CE] [EA][GB] | [Ac]3 [Ec] [=Ec][Ec] | [Fc]2 [FB][FB] [FB][FB] | [EB]3 [Fd] [Ec][DB] | %8
 [CA]3 [FA] [FA][FA] | [FB]3 [DF] [DG]>[CA] | [CA]3 |] %11
V:2
 EC D | E3 E x2 | x6 | x6 | x6 | x6 | x6 | x6 | x6 | x6 | x3 |] %11
V:3
 E,C, D, | E,3 E, [E,C][E,D] | [E,C]2 [E,B,]2 z [E,B,] | [E,D]>[E,C] [E,D][E,B,] [E,A,]>[E,G,] | %4
 A,3 A, [A,C][A,D] | [A,E]3 A, [A,,A,][A,,A,] | [D,A,]2 [D,A,][D,A,] [D,A,][D,A,] | %7
 [E,G,]3 [E,A,] [E,G,][=E,G,] | [F,A,]3 [F,C] [F,C][E,C] | [D,D]3 [D,B,] [E,B,]>[A,,A,] | %10
 [A,,A,]3 |] %11
V:4
 E,C, D, | E,3 E, x2 | x6 | x6 | A,3 A, x2 | x3 A, x2 | x6 | x6 | x6 | x6 | x3 |] %11

